source/img/logos/logo_darkblue.svg

<svg width="48" height="32" fill="none" xmlns="http://www.w3.org/2000/svg"><circle cx="16" cy="16" r="16" fill="#316099"/><circle cx="32" cy="16" r="15" fill="#fff" stroke="#316099" stroke-width="2"/><path d="M39.3 22L34.38 8h-3.42l-4.9 14h2.98l.84-2.52h5.58L36.3 22h3zm-6.62-10.82l1.92 5.72h-3.84l1.92-5.72z" fill="#316099"/></svg>

<svg width="48" height="32" viewBox="0 0 48 32" fill="none" xmlns="http://www.w3.org/2000/svg">
<circle cx="16" cy="16" r="16" fill="#316099"/>
<circle cx="32" cy="16" r="15" fill="white" stroke="#316099" stroke-width="2"/>
<path d="M39.3 22L34.38 8H30.96L26.06 22H29.04L29.88 19.48H35.46L36.3 22H39.3ZM32.68 11.18L34.6 16.9H30.76L32.68 11.18Z" fill="#316099"/>
</svg>
